X: 2
T: The Old Favourite
T: Club Ceili, Kilfenora Jig
R: jig
M: 6/8
L: 1/8
K: Gmaj
   "G" B3 BAB      | "D" dBA "G" G2B | "D" ded "G" d2B      |  "D" ded "Bm/G" B2A   |
   "G" B3 BAB      | "D" dBA "G" G2B | "C/E" ded "D/F#" cBA |1 "G" G3 "Dsus4" GAd  :|2 "G" G3 GBd    ||
|: "G" g3 "D" f3   | "C" ege "G" d2B | "D" ded "G" d2B      |  "D" ded "Bm/G" !mediumphrase! B2d | "G" g3 "D" f3  | "C" ege "G" d2B |
|1 "D" dge "D/F#" dBA | "G" G3 GBd  :|2 "G" dge "Bm/F#" dge |  "Em7" dge "D" dBA    |]


